Adwaita++/actions/22/kdenlive-clips-ungroup.svg

<svg fill="none" height="22" viewBox="0 0 22 22" width="22" xmlns="http://www.w3.org/2000/svg">
  <g fill="#444">
    <path clip-rule="evenodd" d="m3 4c0-.55229.44771-1 1-1h3v2h-2v2h-2zm12 1h2v2h2v-3c0-.55229-.4477-1-1-1h-3zm2 12v-2h2v3c0 .5523-.4477 1-1 1h-3v-2zm-10 0h-2v-2h-2v3c0 .5523.44771 1 1 1h3z" fill-rule="evenodd"/>
    <path d="m14.375 6.5h-7.875v2.25h7.875z"/>
    <path d="m15.5 9.88h-6.75v2.25h6.75z"/>
    <path d="m12.125 13.25h-5.625v2.25h5.625z"/>
  </g>
</svg>

<svg xmlns="http://www.w3.org/2000/svg" fill="none" width="22" height="22" viewBox="0 0 22 22">
 <path fill="#444" fill-rule="evenodd" d="M3 4C3 3.44771 3.44771 3 4 3H7V5H5V7H3V4ZM15 5H17V7H19V4C19 3.44771 18.5523 3 18 3H15V5ZM17 17V15H19V18C19 18.5523 18.5523 19 18 19H15V17H17ZM7 17H5V15H3V18C3 18.5523 3.44771 19 4 19H7V17Z" clip-rule="evenodd"/>
 <path fill="#444" d="M14.375 6.5H6.5V8.75H14.375V6.5Z"/>
 <path fill="#444" d="M15.5 9.88H8.75V12.13H15.5V9.88Z"/>
 <path fill="#444" d="M12.125 13.25H6.5V15.5H12.125V13.25Z"/>
</svg>
